static/icons/projects/link.svg

<svg aria-hidden="true" focusable="false" data-prefix="fas" data-icon="link" class="svg-inline--fa fa-link" role="img" xmlns="http://www.w3.org/2000/svg" viewBox="0 0 640 512"><path fill="currentColor" d="M598.6 41.41C570.1 13.8 534.8 0 498.6 0s-72.36 13.8-99.96 41.41l-43.36 43.36c15.11 8.012 29.47 17.58 41.91 30.02c3.146 3.146 5.898 6.518 8.742 9.838l37.96-37.96C458.5 72.05 477.1 64 498.6 64c20.67 0 40.1 8.047 54.71 22.66c14.61 14.61 22.66 34.04 22.66 54.71s-8.049 40.1-22.66 54.71l-133.3 133.3C405.5 343.1 386 352 365.4 352s-40.1-8.048-54.71-22.66C296 314.7 287.1 295.3 287.1 274.6s8.047-40.1 22.66-54.71L314.2 216.4C312.1 212.5 309.9 208.5 306.7 205.3C298.1 196.7 286.8 192 274.6 192c-11.93 0-23.1 4.664-31.61 12.97c-30.71 53.96-23.63 123.6 22.39 169.6C293 402.2 329.2 416 365.4 416c36.18 0 72.36-13.8 99.96-41.41L598.6 241.3c28.45-28.45 42.24-66.01 41.37-103.3C639.1 102.1 625.4 68.16 598.6 41.41zM234 387.4L196.1 425.3C181.5 439.1 162 448 141.4 448c-20.67 0-40.1-8.047-54.71-22.66c-14.61-14.61-22.66-34.04-22.66-54.71s8.049-40.1 22.66-54.71l133.3-133.3C234.5 168 253.1 160 274.6 160s40.1 8.048 54.71 22.66c14.62 14.61 22.66 34.04 22.66 54.71s-8.047 40.1-22.66 54.71L325.8 295.6c2.094 3.939 4.219 7.895 7.465 11.15C341.9 315.3 353.3 320 365.4 320c11.93 0 23.1-4.664 31.61-12.97c30.71-53.96 23.63-123.6-22.39-169.6C346.1 109.8 310.8 96 274.6 96C238.4 96 202.3 109.8 174.7 137.4L41.41 270.7c-27.6 27.6-41.41 63.78-41.41 99.96c-.0001 36.18 13.8 72.36 41.41 99.97C69.01 498.2 105.2 512 141.4 512c36.18 0 72.36-13.8 99.96-41.41l43.36-43.36c-15.11-8.012-29.47-17.58-41.91-30.02C239.6 394.1 236.9 390.7 234 387.4z"></path></svg>

<?xml version="1.0" encoding="utf-8"?>
<!-- Generator: Adobe Illustrator 25.2.0, SVG Export Plug-In . SVG Version: 6.00 Build 0)  -->
<svg version="1.1" id="Layer_1" focusable="false" xmlns="http://www.w3.org/2000/svg" xmlns:xlink="http://www.w3.org/1999/xlink"
	 x="0px" y="0px" viewBox="0 0 640 512" style="enable-background:new 0 0 640 512;" xml:space="preserve">
<style type="text/css">
	.st0{fill:#FFFFFF;}
</style>
<path class="st0" d="M598.6,41.4C570.1,13.8,534.8,0,498.6,0s-72.4,13.8-100,41.4l-43.4,43.4c15.1,8,29.5,17.6,41.9,30
	c3.1,3.1,5.9,6.5,8.7,9.8l38-38C458.5,72.1,477.1,64,498.6,64c20.7,0,40.1,8,54.7,22.7c14.6,14.6,22.7,34,22.7,54.7
	s-8,40.1-22.7,54.7L420,329.4c-14.5,13.7-34,22.6-54.6,22.6s-40.1-8-54.7-22.7c-14.7-14.6-23.6-34-23.6-54.7s8-40.1,22.7-54.7
	l4.4-3.5c-2.1-3.9-4.3-7.9-7.5-11.1c-8.6-8.6-19.9-13.3-32.1-13.3c-11.9,0-23.1,4.7-31.6,13c-30.7,54-23.6,123.6,22.4,169.6
	c27.6,27.6,63.8,41.4,100,41.4c36.2,0,72.4-13.8,100-41.4l133.2-133.3c28.5-28.4,42.2-66,41.4-103.3
	C639.1,102.1,625.4,68.2,598.6,41.4z M234,387.4l-37.9,37.9C181.5,439.1,162,448,141.4,448c-20.7,0-40.1-8-54.7-22.7
	c-14.6-14.6-22.7-34-22.7-54.7s8-40.1,22.7-54.7L220,182.6c14.5-14.6,33.1-22.6,54.6-22.6s40.1,8,54.7,22.7
	c14.6,14.6,22.7,34,22.7,54.7s-8,40.1-22.7,54.7l-3.5,3.5c2.1,3.9,4.2,7.9,7.5,11.1c8.6,8.5,20,13.2,32.1,13.2
	c11.9,0,23.1-4.7,31.6-13c30.7-54,23.6-123.6-22.4-169.6c-28.5-27.6-63.8-41.4-100-41.4s-72.3,13.8-99.9,41.4L41.4,270.7
	C13.8,298.3,0,334.5,0,370.7c0,36.2,13.8,72.4,41.4,100c27.6,27.6,63.8,41.4,100,41.4c36.2,0,72.4-13.8,100-41.4l43.4-43.4
	c-15.1-8-29.5-17.6-41.9-30C239.6,394.1,236.9,390.7,234,387.4z"/>
</svg>
